svg/600/sharp/rainy_heavy-fill.svg

<svg xmlns="http://www.w3.org/2000/svg" width="48" height="48" viewBox="0 -960 960 960"><path d="M303.043-186.999 27.565-737.522l69.957-35.479 275.479 549.958-69.958 36.044Zm186 1L212.999-737.522l71.523-35.479 275.479 549.958-70.958 37.044Zm187-1L399.999-738.522l71.523-34.479 275.479 548.958-70.958 37.044Zm187 0L586.999-738.522l71.523-34.479 274.479 549.958-69.958 36.044Z"/></svg>

<svg xmlns="http://www.w3.org/2000/svg" width="48" height="48" viewBox="0 -960 960 960"><path d="M303.04-187 27.56-737.52 97.52-773 373-223.04 303.04-187Zm186 1L213-737.52 284.52-773 560-223.04 489.04-186Zm187-1L400-738.52 471.52-773 747-224.04 676.04-187Zm187 0L587-738.52 658.52-773 933-223.04 863.04-187Z"/></svg>
